X: 2420
T: GET ON DE TRAIN
R: Sand Jig.
%R: _
B: James Kerr "Merry Melodies" v.2 p.47 #4120
Z: 2016 John Chambers <jc:trillian.mit.edu>
M: C
L: 1/8
K: G
|:\
G2F2 G2D2 | GB2e dBAG |\
A2^G2 A2E2 | Af2e dcBA |\
G2F2 G2D2 | GB2e dBAG |\
A2^G2 A2E2 | (e2d)z _E2Dz :|
|:\
(3vBBB B>e dBAG | (3BBB B>e dBAG |\
gg2e g4 | GG2E G4 |\
(3BBB B>e dBAG | (3BBB B>e dBAG |\
gfgd fedc | BdcA G2z2 :|
|:\
G2F2 G2D2 | (3G,B,D GBd g4 |\
A2^G2 A2E2 |(3DFA (3dfa d'4 |\
G2F2 G2D2 | A2^G2 A2E2 |\
cf2e dcBA |[1 Az (D2_E2D2) :|[2 G2g2G2 |]

%%sep 1 1 500
%%sep 1 1 500

